src/components/Icon/icons/filled-bulb.svg

<svg xmlns="http://www.w3.org/2000/svg" width="100%" height="100%" viewBox="0 0 19 20" fill="none">
  <g clip-path="url(#clip0_156_3827)">
    <path d="M14.1703 10.2898C13.6703 10.2898 13.2403 9.9398 13.1303 9.4498L13.1003 9.3198C12.9503 8.6598 12.6103 8.0498 12.1203 7.5798C11.6303 7.1098 11.0103 6.7898 10.3303 6.6798C9.82033 6.5898 9.46033 6.1698 9.46033 5.6398C9.46033 5.1098 9.82033 4.6898 10.3303 4.5998C11.0003 4.4798 11.6203 4.1698 12.1203 3.6898C12.6203 3.2098 12.9503 2.6098 13.1003 1.9398L13.1303 1.8198C13.2403 1.3298 13.6703 0.979798 14.1703 0.979798C14.7003 0.959798 15.1103 1.3198 15.2203 1.8098L15.2503 1.9498C15.4003 2.6198 15.7503 3.2198 16.2403 3.6898C16.7403 4.1598 17.3603 4.4698 18.0303 4.5898C18.5503 4.6798 18.9003 5.1098 18.9003 5.6298C18.9003 6.1498 18.5403 6.5798 18.0303 6.6698C17.3503 6.7898 16.7403 7.0998 16.2403 7.5698C15.7403 8.0398 15.4003 8.6398 15.2503 9.3098L15.2103 9.4598C15.1003 9.9498 14.6703 10.2898 14.1703 10.2898Z" fill="currentColor"/>
    <path d="M4.81031 19.0796C4.40031 19.0796 4.07031 18.7496 4.07031 18.3396C4.07031 17.9296 4.40031 17.5996 4.81031 17.5996H9.95031C10.3603 17.5996 10.6903 17.9296 10.6903 18.3396C10.6903 18.7496 10.3603 19.0796 9.95031 19.0796H4.81031Z" fill="currentColor"/>
    <path d="M5.45038 15.9096C5.09038 15.9096 4.73038 15.7596 4.47038 15.4996C4.21038 15.2396 4.06038 14.8896 4.06038 14.5196V12.9796C2.76038 12.2796 1.73038 11.0296 1.22038 9.54965C0.660382 7.91965 0.760382 6.16965 1.49038 4.61965C2.23038 3.06965 3.52038 1.87965 5.13038 1.28965C5.85038 1.02965 6.60038 0.889648 7.37038 0.889648C7.54038 0.889648 7.71038 0.889648 7.88038 0.909648C9.24038 0.979648 10.4004 1.43965 11.3404 2.25965L11.4104 2.31965L11.3604 2.38965C11.2604 2.52965 11.2104 2.60965 11.1304 2.67965C10.8404 2.95965 10.4704 3.14965 10.0704 3.21965C8.89038 3.41965 8.04038 4.43965 8.04038 5.63965C8.04038 6.83965 8.89038 7.84965 10.0704 8.04965C10.4704 8.11965 10.8404 8.30965 11.1304 8.58965C11.4204 8.86965 11.6204 9.21965 11.7104 9.59965L11.7404 9.74965C11.8604 10.2896 12.1404 10.7596 12.5604 11.1096L12.6304 11.1696L12.5104 11.3596C12.4604 11.4496 12.4104 11.5296 12.3504 11.6096C12.3304 11.6496 12.2204 11.7896 12.1904 11.8196C11.7704 12.3196 11.2704 12.7396 10.6904 13.0596V14.5296C10.6904 14.8996 10.5504 15.2396 10.2904 15.5096C10.0304 15.7696 9.67038 15.9196 9.31038 15.9196H5.45038V15.9096Z" fill="currentColor"/>
  </g>
  <defs>
    <clipPath id="clip0_156_3827">
      <rect width="18.04" height="18.19" fill="white" transform="translate(0.860352 0.889648)"/>
    </clipPath>
  </defs>
</svg>

<svg xmlns="http://www.w3.org/2000/svg" fill="none" viewBox="0 0 19 20"><g fill="currentColor" clip-path="url(#a)"><path d="M14.17 10.29c-.5 0-.93-.35-1.04-.84l-.03-.13c-.15-.66-.49-1.27-.98-1.74s-1.11-.79-1.79-.9c-.51-.09-.87-.51-.87-1.04s.36-.95.87-1.04a3.45 3.45 0 0 0 2.77-2.66l.03-.12c.11-.49.54-.84 1.04-.84.53-.02.94.34 1.05.83l.03.14c.15.67.5 1.27.99 1.74.5.47 1.12.78 1.79.9.52.09.87.52.87 1.04s-.36.95-.87 1.04c-.68.12-1.29.43-1.79.9s-.84 1.07-.99 1.74l-.04.15c-.11.49-.54.83-1.04.83M4.81 19.08c-.41 0-.74-.33-.74-.74s.33-.74.74-.74h5.14c.41 0 .74.33.74.74s-.33.74-.74.74z"/><path d="M5.45 15.91a1.403 1.403 0 0 1-1.39-1.39v-1.54c-1.3-.7-2.33-1.95-2.84-3.43a6.53 6.53 0 0 1 3.91-8.26A6.6 6.6 0 0 1 7.88.91c1.36.07 2.52.53 3.46 1.35l.07.06-.05.07c-.1.14-.15.22-.23.29-.29.28-.66.47-1.06.54a2.44 2.44 0 0 0-2.03 2.42c0 1.2.85 2.21 2.03 2.41a2.067 2.067 0 0 1 1.64 1.55l.03.15c.12.54.4 1.01.82 1.36l.07.06-.12.19c-.05.09-.1.17-.16.25-.02.04-.13.18-.16.21-.42.5-.92.92-1.5 1.24v1.47c0 .37-.14.71-.4.98-.26.26-.62.41-.98.41H5.45z"/></g><defs><clipPath id="a"><path fill="#fff" d="M.86.89H18.9v18.19H.86z"/></clipPath></defs></svg>
